www/assets/icons/gpp_good.svg

<svg xmlns="http://www.w3.org/2000/svg" width="24" height="24" viewBox="0 0 24 24" fill='currentColor'><path d="M12 2 4 5v6.09c0 5.05 3.41 9.76 8 10.91 4.59-1.15 8-5.86 8-10.91V5zm-1.06 13.54L7.4 12l1.41-1.41 2.12 2.12 4.24-4.24 1.41 1.41z"/></svg>

<svg width="24" height="24" viewBox="0 0 24 24" xmlns="http://www.w3.org/2000/svg" fill='currentColor'><path d="M12 2L4 5V11.09C4 16.14 7.41 20.85 12 22C16.59 20.85 20 16.14 20 11.09V5L12 2ZM10.94 15.54L7.4 12L8.81 10.59L10.93 12.71L15.17 8.47L16.58 9.88L10.94 15.54Z"/></svg>
